X:97
T:Hills of Glenorchy, The 
C:Joe Buchanan's Scottish Tome - Page 123.3
I:123 3
R:Jig
Z:Carl Allison
L:1/8
M:6/8
K:G
d/>^c/ | "Em"(B2E) E>FE | "Em"B>AB (d2B) | ("D"A2D) D>ED | "D"F>DF A>d^c |
"Em"B>EE E>FA | "Em"B>AB (!tenuto!e2!tenuto!e) | "G"(d>Bd) A>FD | "Em"E>FE E2 :|
B | "Em"e>fe e>dB | "Em"e>fg g>fe | "D"d>ed d>AF | "Em"d>^cd f>ed |
"Em"e>fe e>dB | "Em"e>fg "D"f>ef | "G"d>Bd "D"A>FD | "Em"E>FE E2 :|

